X:1
T:Benedetta la mano
T:Tiburtio Massaino
T:Benedetta la mano 
C:Tiburtio Massaino
%%score [ 1 2 3 4 ]
L:1/8
Q:1/4=84
M:4/2
K:F
V:1 alto1 nm="Canto" snm="C"
V:2 alto nm="Alto" snm="A"
V:3 tenor nm="Tenore" snm="T"
V:4 bass nm="Basso" snm="B"
V:1
 z16 |[K:G][K:treble] z16 | z8 A6 B2 | c4 d2 e2 =f4 e4 | z4 e6 d2 c4 | c2 B2 A2 E2 G2 A2 B4 | %6
w: ||Be- ne-|det- ta la ma- no,|Be- ne- det-|ta la ma- * * * *|
 A8 z4 d4 | c6 c2 c8 | B4 A8 G4 | z4 G8 F4- | F4 G4 G4 A4 | B6 A2 G4 F4 | E8 D8 | z16 | z16 | %15
w: no, Che|si pie- to-|sa- men- te,|Che si|_ pie- to- sa-|men- te m'ha soc-|cor- so,|||
 z4 e8 d4 | c8 c4 B4 | A12 A4 | G12 F4 | E8 D4 G4- | G4 c6 B2 A4 | ^G16 || z4 z2 B2 c4 B2 B2 | %23
w: Ne l'e-|stre- mo do-|lor ov'|e- ra|cor- so, ov'|_ e- ra cor-|so.|Fe- li- ce, Fe-|
 c4 B4 z4 c4 | B4 A8 B4- | B2 A2 G8 F4 | B12 B4 | B4 e4 ^d4 d2 d2 | e4 B2 B2 c6 c2 | B4 A4 B8 | %30
w: li- ce, Fe-|li- ce do-|* * * glia|ch'heb- be|tal con- for- to, Da|quel- la, Da quel- la|man gen- ti-|
 A4 z4 z8 | z16 | e6 B2 d4 ^c2 d2 | B2 ^c2 d2 e2 d8- | d8 e8 | z4 c4 B2 ^c2 d4 | e4 e2 c2 c4 d4 | %37
w: le,||Che con- ver- se in di-|let- to o- gni mia no-|* ia,|Dol- ce so- a-|ve at- to pie- to- so e hu-|
 B4 A2 B4 c4 B2 | d4 c4 B4 B2 ^c2 | d4 c4 B4 d2 c2 | c2 d3 c c4 B2 c2 c2- | c2 B2 c2 B4 A4 ^G2 | %42
w: mi- le Che del mio|mal ac- cor- to Mi|fe do- len- do del|mio duol gio- i- * re, del|_ mio duol gio- i- *|
 A8 z8 | z16 | z4 e8 d4 | c4 B8 A4 | B4 B4 z8 | z8 z4 e4- | e4 d4 c4 B4- | B2 A2 A8 ^G4 | A8 z8 | %51
w: re,||Dol- ce|mi fia lan-|gui- re,|Dol-|* ce mi fia|_ lan- gui- *|re,|
 z8 z4 G4- | G4 F8 A4- | A2 A2 G4 F4 A4- | A4 G8 F4 | G6 FE F4 E4 | z8 z2 e4 c2 | %57
w: D'og-|* ni strac-|* cio cru- del di|_ ti- gre o|d'or- * * * so,|Per ha-|
 d4 e3 d c2 d2 B4- | B2 A2 A4 B2 d4 B2 | c4 B2 e2 c2 c2 c3 B | A4 B4 z2 c4 A2 | %61
w: ver poi da quel- la man|_ soc- cor- so, Per ha-|ver poi da quel- la man soc-|cor- so, Per ha-|
 B4 c2 A2 c2 d2 e3 d | c6 BA G2 A3 ^G G2 | A16 |] %64
w: ver poi da quel- la man soc-|cor- * * * * * *|so.|
V:2
 z16 |[K:G][K:treble] E6 D2 C4 G3 F | E8 F4 A4- | A2 G2 G4 C2 D2 E4 | E4 z4 A,6 B,2 | %5
w: |Be- ne- det- ta la|ma- no, Be-|* ne- det- ta la ma-|no, Be- ne-|
 C4 C3 D E4 B,4 | z8 z4 D4 | E6 E2 E4 F4 | G4 E4 D4 E4 | =F4 E4 z4 D4- | D4 D4 E6 E2 | %11
w: det- ta la ma- no,|Che|si pie- to- sa-|men- te m'ha soc-|cor- so, Ne|_ l'e- stre- mo|
 ^D4 E4 z4 A4- | A4 G8 =F4- | F4 E8 E4 | D4 C8 B,4- | B,4 A,4 ^G,8 | A,8 E6 D2 | C2 B,2 A,8 A,4 | %18
w: do- lor, Ne|_ l'e- stre-|* mo do-|lor ov' e-|* ra cor-|so, Ne _|_ _ _ l'e-|
 E8 D6 C2 | B,4 C4 B,4 E4 | E16 | E16 || z2 A2 ^G4 A2 A2 G4 | A4 z4 z4 E4 | F8 F4 G4- | %25
w: stre- mo do-|lor ov' e- ra|cor-|so.|Fe- li- ce, Fe- li-|ce, Fe-|li- ce do-|
 G2 F2 E8 ^D4 | z4 G8 F4 | ^G4 A4 B4 B2 F2 | G12 A4 | F3 G A6 GF G4 | A4 z4 z8 | z8 z4 G4- | %32
w: * * * glia|ch'heb- be|tal con- for- to, Da|quel- la|man gen- ti- * * *|le,|Che|
 G2 E2 G4 F2 G2 E2 F2 | G2 A2 G4 F2 B2 A4 | B8 z8 | A8 ^G2 A2 B4 | E4 E2 G2 A4 A4 | %37
w: _ con- ver- se in di- let- to o-|gni mia no- ia, mia no-|ia,|Dol- ce so- a-|ve at- to pie- to- so e hu-|
 ^G4 A2 =G4 G4 G2 | B4 A4 ^G4 G2 A2 | B6 A2 G4 B2 G2- | G2 B2 A2 G2 G4 G2 G2- | G2 G2 G4 E8 | %42
w: mi- le Che del mio|mal ac- cor- to Mi|fe do- len- do del|_ mio duol gio- i- re, del|_ mio duol gio-|
 E8 E4 E4- | E4 D4 C4 B,4- | B,4 A,4 B,4 B,2 B,2 | G,2 A,2 B,2 C2 D4 E4 | G4 F4 z4 A4- | %47
w: i- re, Dol-|* ce mi fia|_ lan- gui- re, mi|fia _ _ _ _ lan-|gui- re, Dol-|
 A4 G4 F4 E4- | E4 F4 G6 FE | F4 E4 z8 | z4 C8 B,4- | B,4 D6 D2 C4 | B,4 D8 E4- | E4 E6 D2 C4 | %54
w: * ce mi fia|_ lan- gui- * *|* re,|D'og- ni|_ strac- cio cru-|del di ti-|* gre o _ _|
 D4 E6 DC D4 | E8 z4 z2 E2- | E2 C2 D4 E2 B,2 C2 C2 | B,2 B,2 C4 A,4 z2 G2- | G2 E2 F4 G2 A2 B3 A | %59
w: _ d'or- * * *|so, Per|_ ha- ver poi da quel- la|man soc- cor- so, Per|_ ha- ver poi da quel- la|
 G2 G2 G4 A4 z2 A2- | A2 F2 G4 G2 E2 A2 A2 | G3 F E4 E4 z2 E2 | E4 A,4 B,2 E,2 E4 | ^C16 |] %64
w: man soc- cor- so, Per|_ ha- ver poi da quel- la|man soc- cor- so, da|quel- la man soc- cor-|so.|
V:3
 z16 |[K:G][K:treble-8] z8 z4 e4- | e2 d2 c4 d2 e2 =f4 | e4 z4 z4 z2 A2- | A2 B2 c4 c2 d2 e4 | %5
w: |Be-|* ne- det- ta la ma-|no, Be-|* ne- det- ta la ma-|
 A8 z4 d4 | c6 c2 c4 B4 | A8 A4 z2 A2 | B4 c4 A4 B4 | A4 G4 B8- | B4 B4 G4 F2 E2 | F4 E4 B6 A2 | %12
w: no, Che|si pie- to- sa-|men- te, Che|si pie- to- sa-|men- te m'ha|_ soc- cor- * *|* so, Ne l'e-|
 c8 A4 B4 | c12 B4 | A6 A2 G4 F4 | G4 E2 E2 B8 | E8 z4 e4- | e4 d8 c4- | c4 B8 A4 | ^G4 A4 B4 B4 | %20
w: stre- mo do-|lor ov'|e- ra cor- so,|ov' e- ra cor-|so, Ne|_ l'e- stre-|* mo do-|lor ov' e- ra|
 c16 | B16 || z4 z2 e2 e4 e2 e2 | e4 e4 z4 A4 | d12 B4 | c8 B8 | z4 e8 ^d4 | e4 c4 B4 B2 B2 | %28
w: cor-|so.|Fe- li- ce, Fe-|li- ce, Fe-|li- ce|do- glia|ch'heb- be|tal con- for- to, Da|
 e12 c4 | d4 =f4 e4 e4 | z4 e6 B2 d4 | ^c2 d2 B2 c2 d2 e2 d4 | e8 z8 | z4 z2 c2 d2 G2 d4 | G8 z8 | %35
w: quel- la|man gen- ti- le,|Che con- ver-|se in di- let- to o- gni mia no-|ia,|o- gni mia no-|ia,|
 e8 e2 e2 g4 | g4 g2 e2 =f4 f4 | e4 e2 e4 e4 d2 | g4 e4 e4 e2 e2 | g4 e4 d4 g2 e2- | %40
w: Dol- ce so- a-|ve at- to pie- to- so e hu-|mi- le Che del mio|mal ac- cor- to Mi|fe do- len- do del|
 e2 d2 =f2 e2 d4 e2 e2- | e2 d2 e4 c4 B4 | A8 c8 | A4 B4 G2 A2 B2 c2 | d4 e4 g4 f4 | e8 z4 e4- | %46
w: _ mio duol gio- i- re, del|_ mio duol gio- i-|re, Dol-|ce mi fia _ _ _|_ lan- gui- *|re, Dol-|
 e4 d8 c4- | c4 B6 AG A2 c2 | B4 A4 z4 G4 | A4 c4 B8 | A8 z8 | z8 z4 e4- | e4 B4 d6 d2 | c4 B8 A4 | %54
w: * ce mi|_ fia _ _ _ lan-|gui- re, mi|fia lan- gui-|re,|D'og-|* ni strac- cio|cru- del di|
 F4 E8 B4 | E4 z2 A4 F2 G4 | E2 A2 A2 A2 B2 G2 A4 | G4 z4 z2 d4 B2 | c4 d2 d2 d2 f2 g2 d2 | %59
w: ti- gre o d'or-|so, Per ha- ver|poi da quel- la man soc- cor-|so, Per ha-|ver poi da quel- la man soc-|
 e4 e4 z2 e4 c2 | d4 d2 e2 d2 c2 A2 c2 | e4 A2 c4 A2 B4 | c2 A2 c2 d2 e2 c2 B4 | e16 |] %64
w: cor- so, Per ha-|ver poi da quel- la man soc-|cor- so, Per ha- ver|poi da quel- la man soc- cor-|so.|
V:4
 z16 |[K:G] z4 A,6 B,2 C4 | C2 B,2 A,4 D,8 | z4 z2 E,4 D,2 C,4 | C,2 B,,2 A,,8 A,,4 | z8 z4 G,4 | %6
w: |Be- ne- det-|ta la ma- no,|Be- ne- det-|ta la ma- no,|Che|
 A,6 A,2 A,4 B,4 | C12 A,4 | G,4 A,4 =F,4 E,4 | z4 C,4 B,,6 B,,2 | B,,4 B,,4 C,8 | B,,4 E,8 D,4 | %12
w: si pie- to- sa-|men- te|m'ha soc- cor- so,|Che si pie-|to- sa- men-|te m'ha soc-|
 C,8 D,8 | A,,4 A,8 G,4 | =F,8 E,4 D,4 | C,8 B,,8 | A,,12 E,4 | =F,16 | E,8 z4 D,4 | %19
w: cor- *|so, Ne l'e-|stre- mo do-|lor ov'|e- ra|cor-|so, ov'|
 E,4 C,4 G,2 F,2 E,2 D,2 | C,6 B,,2 A,,8 | E,16 || z2 A,,2 E,4 A,,2 A,,2 E,4 | A,,4 z4 z8 | z16 | %25
w: e- ra cor- * * *||so.|Fe- li- ce, Fe- li-|ce,||
 z16 | z16 | z16 | z16 | z16 | A,6 E,2 G,4 F,2 G,2 | E,2 F,2 G,2 A,2 G,8 | C,4 z4 z8 | z16 | z16 | %35
w: |||||Che con- ver- se in di-|let- to o- gni mia no-|ia,|||
 A,8 E,2 A,2 G,4 | C,4 C,2 C,2 =F,4 D,4 | E,4 A,,2 E,4 C4 G,2 | G,4 A,4 E,4 E,2 A,2 | %39
w: Dol- ce so- a-|ve at- to pie- to- so e hu-|mi- le Che del mio|mal ac- cor- to Mi|
 G,4 G,4 G,4 G,2 C2- | C2 G,2 A,2 C2 G,4 C,2 C2- | C2 G,2 G,4 A,4 E,4 | A,,16 | z8 E,8 | %44
w: fe do- len- do del|_ mio duol gio- i- re, del|_ mio duol gio- i-|re,|Dol-|
 D,4 C,4 B,,8 | E,8 D,4 C,4 | B,,8 A,,8 | E,4 E,4 A,8 | G,4 F,4 E,8 | D,4 C,2 B,,A,, E,8 | %50
w: ce mi fia,|Dol- ce mi|fia lan-|gui- re, Dol-|ce mi fia|lan- gui- * * *|
 A,,4 A,8 E,4 | G,6 G,2 F,4 E,4- | E,4 D,4 B,,4 A,,4- | A,,4 E,4 A,,8 | z16 | %55
w: re, D'og- ni|strac- cio cru- del|_ di ti- gre o|_ d'or- so,||
 z2 E,4 C,2 D,4 E,2 C,2 | C,2 =F,2 D,2 F,2 E,4 A,,4 | z4 z2 A,4 F,2 G,4 | %58
w: Per ha- ver poi da|quel- la man soc- cor- so,|Per ha- ver|
 E,2 A,2 D,2 D,2 G,2 D,2 G,4 | C,4 z2 C,4 A,,2 A,4 | D,2 D,2 G,2 E,2 G,2 A,2 =F,4 | %61
w: poi da quel- la man soc- cor-|so, Per ha- ver|poi da quel- la man soc- cor-|
 E,4 A,4 A,4 ^G,4 | A,4 =F,4 E,8 | A,,16 |] %64
w: so, da quel- la|man soc- cor-|so.|

